svg/u1f461.svg

<svg viewBox="0 0 128 128" xmlns="http://www.w3.org/2000/svg">
  <g>
    <path d="M30.61,103.51c0.41-0.39,6.81-6.68,10.54-10.2c0,0-8.01-3.25-10.98-3.74l-1.66,14.68 C29.52,104.4,30.2,103.9,30.61,103.51z" fill="#37474F"/>
    <path d="M104.75,90.37c0,0,4.96,1.49,7.82,3.76c2.87,2.27,0.38,6.37,0.38,6.37 c-6.35-2.06-12.52-2.76-12.52-2.76L104.75,90.37z" fill="#546E7A"/>
    <path d="M5.26,74.46l0.18,20.98c0.01,0.66,0.3,1.29,0.82,1.7c7.98,6.26,18,7.08,22.27,7.12 c1.17,0.01,2.12-0.9,2.19-2.06l0.58-10.65c17.83,4.35,20.57,19.57,37.59,25.95c25.06,9.4,49.72,4,53.63-3.4 c0,0,0.81-5.56-0.55-7.99C121.43,105.14,9.42,73.24,5.26,74.46z" fill="#874D36"/>
    <path d="M117.98,113.68c-4.25,2.96-24.45,8.27-47.5,0c-13.64-4.89-18.31-18.34-33.39-24.96 c-5.17-2.27-12.51-4.12-17.95-5.65c-5.43-1.53-10.86-4.25-13.89-9.02c0.18-2.68,2.93-3.54,5.49-4.34 c12.16-3.78,25.44-0.87,37.21,3.98c15.55,6.41,22.8,15.44,34.86,19.51c9.12,3.08,18.78,4.1,28.12,6.42 C124.24,102.91,124.72,108.98,117.98,113.68z" fill="#FFCC80"/>
    <path d="M22.63,69.98c7.36,0,15.62,1.87,24.57,5.56C54.8,78.67,60.29,82.4,65.61,86 c5.29,3.59,10.3,6.98,16.57,9.1c5.74,1.94,11.73,3.09,17.52,4.2c3.55,0.68,7.22,1.39,10.76,2.26c5.71,1.41,9.36,3.52,9.75,5.65 c0.26,1.4-0.97,3.16-3.37,4.84c-1.9,1.33-9.55,4.06-21.07,4.06c-8.36,0-16.64-1.45-24.6-4.31c-6.45-2.31-10.86-6.76-15.53-11.48 c-4.87-4.92-9.91-10-17.73-13.44c-4.4-1.94-10.16-3.52-15.23-4.92c-1.04-0.29-2.04-0.56-2.98-0.83 c-6.97-1.97-12.43-5.09-12.43-7.11c0-0.25,0.26-2.44,9.63-3.66l0.32-0.04C18.96,70.1,20.78,69.98,22.63,69.98 M22.63,67.98 c-1.91,0-3.81,0.12-5.69,0.37c-2.09,0.28-11.71,1.33-11.68,5.7c0,4.47,9.89,7.89,13.89,9.02c5.43,1.53,12.78,3.38,17.95,5.65 c15.07,6.63,19.75,20.07,33.39,24.96c9.15,3.28,17.85,4.42,25.28,4.42c11.29,0,19.66-2.64,22.22-4.42 c6.74-4.7,6.26-10.77-7.04-14.06c-9.34-2.31-19-3.34-28.12-6.42c-12.06-4.07-19.3-13.1-34.86-19.51 C39.94,70.38,31.22,67.98,22.63,67.98L22.63,67.98z" fill="#DE7340"/>
    <path d="M87.99,118.11c0,0,0.52-9.04,4.27-14.08c2.93-3.93,9.26-7.58,15.02-9.35 c2.51-0.77,6.42-0.8,6.42-0.8c-4.41-3.52-17.74-9.08-22.87-9.08c-9.8-0.01-18.84,5.21-22.71,11.91 c-2.32,4.02-2.68,10.33-2.22,13.73C65.89,110.44,69.29,116.12,87.99,118.11z" fill="#DE7340"/>
    <path d="M86.99,118.19c-0.04-0.44-0.91-12.79,10.49-20.59c6.59-4.51,11.01-4.99,14.8-4.39 c4.12,0.65,1.71,7.28,1.71,7.28l-2.33-0.69c0,0,1.58-4.37-0.45-4.62c-1.21-0.15-6.76,0.1-12.61,4.1 c-10.38,7.11-9.65,18.34-9.62,18.73L86.99,118.19z" fill="#753D29"/>
    <path d="M72.56,97.32c5.24-4.63,5.72-0.73,10.02-0.09c1.09,0.16,2.21,0.17,3.3,0.36 c2.92,0.45,3.65,2.83,2.26,5.27c-1.07,1.85-2.49,4.48-4.85,4.59c-0.82-0.02-1.56-0.48-2.28-0.88c-2.72-1.49-5.27-1.64-8.37-1.61 C67.31,105.02,70.44,99.19,72.56,97.32z" fill="#F2AA7B"/>
  </g>
</svg>

<svg viewBox="0 0 128 128" xmlns="http://www.w3.org/2000/svg">
  <defs/>
  <path d="M30.61,103.51 C31.02,103.12 37.42,96.83 41.15,93.31 C41.15,93.31 33.14,90.06 30.17,89.57 L28.51,104.25 C29.52,104.4 30.2,103.9 30.61,103.51 Z" fill="#37474F"/>
  <path d="M104.75,90.37 C104.75,90.37 109.71,91.86 112.57,94.13 C115.44,96.4 112.95,100.5 112.95,100.5 C106.6,98.44 100.43,97.74 100.43,97.74 L104.75,90.37 Z" fill="#546E7A"/>
  <path d="M5.26,74.46 L5.44,95.44 C5.45,96.1 5.74,96.73 6.26,97.14 C14.24,103.4 24.26,104.22 28.53,104.26 C29.7,104.27 30.65,103.36 30.72,102.2 L31.3,91.55 C49.13,95.9 51.87,111.12 68.89,117.5 C93.95,126.9 118.61,121.5 122.52,114.1 C122.52,114.1 123.33,108.54 121.97,106.11 C121.43,105.14 9.42,73.24 5.26,74.46 Z" fill="#874D36"/>
  <path d="M117.98,113.68 C113.73,116.64 93.53,121.95 70.48,113.68 C56.84,108.79 52.17,95.34 37.09,88.72 C31.92,86.45 24.58,84.6 19.14,83.07 C13.71,81.54 8.28,78.82 5.25,74.05 C5.43,71.37 8.18,70.51 10.74,69.71 C22.9,65.93 36.18,68.84 47.95,73.69 C63.5,80.1 70.75,89.13 82.81,93.2 C91.93,96.28 101.59,97.3 110.93,99.62 C124.24,102.91 124.72,108.98 117.98,113.68 Z" fill="#FFCC80"/>
  <path d="M22.63,69.98 C29.99,69.98 38.25,71.85 47.2,75.54 C54.8,78.67 60.29,82.4 65.61,86 C70.9,89.59 75.91,92.98 82.18,95.1 C87.92,97.04 93.91,98.19 99.7,99.3 C103.25,99.98 106.92,100.69 110.46,101.56 C116.17,102.97 119.82,105.08 120.21,107.21 C120.47,108.61 119.24,110.37 116.84,112.05 C114.94,113.38 107.29,116.11 95.77,116.11 C87.41,116.11 79.13,114.66 71.17,111.8 C64.72,109.49 60.31,105.04 55.64,100.32 C50.77,95.4 45.73,90.32 37.91,86.88 C33.51,84.94 27.75,83.36 22.68,81.96 C21.64,81.67 20.64,81.4 19.7,81.13 C12.73,79.16 7.27,76.04 7.27,74.02 C7.27,73.77 7.53,71.58 16.9,70.36 L17.22,70.32 C18.96,70.1 20.78,69.98 22.63,69.98 M22.63,67.98 C20.72,67.98 18.82,68.1 16.94,68.35 C14.85,68.63 5.23,69.68 5.26,74.05 C5.26,78.52 15.15,81.94 19.15,83.07 C24.58,84.6 31.93,86.45 37.1,88.72 C52.17,95.35 56.85,108.79 70.49,113.68 C79.64,116.96 88.34,118.1 95.77,118.1 C107.06,118.1 115.43,115.46 117.99,113.68 C124.73,108.98 124.25,102.91 110.95,99.62 C101.61,97.31 91.95,96.28 82.83,93.2 C70.77,89.13 63.53,80.1 47.97,73.69 C39.94,70.38 31.22,67.98 22.63,67.98 L22.63,67.98 Z" fill="#DE7340"/>
  <path d="M87.99,118.11 C87.99,118.11 88.51,109.07 92.26,104.03 C95.19,100.1 101.52,96.45 107.28,94.68 C109.79,93.91 113.7,93.88 113.7,93.88 C109.29,90.36 95.96,84.8 90.83,84.8 C81.03,84.79 71.99,90.01 68.12,96.71 C65.8,100.73 65.44,107.04 65.9,110.44 C65.89,110.44 69.29,116.12 87.99,118.11 Z" fill="#DE7340"/>
  <path d="M86.99,118.19 C86.95,117.75 86.08,105.4 97.48,97.6 C104.07,93.09 108.49,92.61 112.28,93.21 C116.4,93.86 113.99,100.49 113.99,100.49 L111.66,99.8 C111.66,99.8 113.24,95.43 111.21,95.18 C110,95.03 104.45,95.28 98.6,99.28 C88.22,106.39 88.95,117.62 88.98,118.01 L86.99,118.19 Z" fill="#753D29"/>
  <path d="M72.56,97.32 C77.8,92.69 78.28,96.59 82.58,97.23 C83.67,97.39 84.79,97.4 85.88,97.59 C88.8,98.04 89.53,100.42 88.14,102.86 C87.07,104.71 85.65,107.34 83.29,107.45 C82.47,107.43 81.73,106.97 81.01,106.57 C78.29,105.08 75.74,104.93 72.64,104.96 C67.31,105.02 70.44,99.19 72.56,97.32 Z" fill="#F2AA7B"/>
</svg>
